images/16758077.svg

<?xml version="1.0" encoding="UTF-8"?>
<svg xmlns="http://www.w3.org/2000/svg" xmlns:xlink="http://www.w3.org/1999/xlink" width="300pt" height="300pt" viewBox="0 0 300 300" version="1.1">
<defs>
<g>
<symbol overflow="visible" id="glyph0-0">
<path style="stroke:none;" d="M 0.546875 1.9375 L 0.546875 -7.75 L 6.046875 -7.75 L 6.046875 1.9375 Z M 1.171875 1.328125 L 5.4375 1.328125 L 5.4375 -7.140625 L 1.171875 -7.140625 Z M 1.171875 1.328125 "/>
</symbol>
<symbol overflow="visible" id="glyph0-1">
<path style="stroke:none;" d="M 4.328125 -7.28125 C 3.546875 -7.28125 2.921875 -6.984375 2.453125 -6.390625 C 1.992188 -5.804688 1.765625 -5.007812 1.765625 -4 C 1.765625 -2.988281 1.992188 -2.1875 2.453125 -1.59375 C 2.921875 -1.007812 3.546875 -0.71875 4.328125 -0.71875 C 5.117188 -0.71875 5.742188 -1.007812 6.203125 -1.59375 C 6.660156 -2.1875 6.890625 -2.988281 6.890625 -4 C 6.890625 -5.007812 6.660156 -5.804688 6.203125 -6.390625 C 5.742188 -6.984375 5.117188 -7.28125 4.328125 -7.28125 Z M 4.328125 -8.171875 C 5.453125 -8.171875 6.351562 -7.789062 7.03125 -7.03125 C 7.707031 -6.28125 8.046875 -5.269531 8.046875 -4 C 8.046875 -2.738281 7.707031 -1.726562 7.03125 -0.96875 C 6.351562 -0.21875 5.453125 0.15625 4.328125 0.15625 C 3.203125 0.15625 2.300781 -0.21875 1.625 -0.96875 C 0.957031 -1.71875 0.625 -2.726562 0.625 -4 C 0.625 -5.269531 0.957031 -6.28125 1.625 -7.03125 C 2.300781 -7.789062 3.203125 -8.171875 4.328125 -8.171875 Z M 4.328125 -8.171875 "/>
</symbol>
</g>
</defs>
<g id="surface28505">
<rect x="0" y="0" width="300" height="300" style="fill:rgb(100%,100%,100%);fill-opacity:1;stroke:none;"/>
<path style="fill:none;stroke-width:1;stroke-linecap:butt;stroke-linejoin:miter;stroke:rgb(0%,0%,0%);stroke-opacity:1;stroke-miterlimit:10;" d="M 183.730469 154.753906 L 183.730469 154.753906 M 186.039062 152.835938 L 185.242188 152.160156 M 188.34375 150.917969 L 186.75 149.570312 M 190.648438 148.996094 L 188.261719 146.976562 M 192.957031 147.078125 L 189.769531 144.382812 M 195.261719 145.160156 L 191.28125 141.792969 M 197.566406 143.238281 L 192.789062 139.199219 M 199.875 141.320312 L 194.300781 136.605469 M 202.179688 139.402344 L 195.808594 134.015625 M 204.484375 137.484375 L 197.320312 131.421875 M 204.773438 137.242188 L 197.507812 131.097656 "/>
<path style="fill:none;stroke-width:1.2;stroke-linecap:butt;stroke-linejoin:miter;stroke:rgb(0%,0%,0%);stroke-opacity:1;stroke-miterlimit:10;" d="M 183.730469 154.753906 L 174.609375 129.386719 "/>
<path style="fill:none;stroke-width:1.2;stroke-linecap:butt;stroke-linejoin:miter;stroke:rgb(0%,0%,0%);stroke-opacity:1;stroke-miterlimit:10;" d="M 166.324219 175.335938 L 183.730469 154.753906 "/>
<path style="fill:none;stroke-width:1.2;stroke-linecap:butt;stroke-linejoin:miter;stroke:rgb(0%,0%,0%);stroke-opacity:1;stroke-miterlimit:10;" d="M 210.261719 159.539062 L 183.730469 154.753906 "/>
<path style="fill:none;stroke-width:1.2;stroke-linecap:butt;stroke-linejoin:miter;stroke:rgb(0%,0%,0%);stroke-opacity:1;stroke-miterlimit:10;" d="M 174.609375 129.386719 L 148.082031 124.601562 "/>
<path style="fill:none;stroke-width:1.2;stroke-linecap:butt;stroke-linejoin:miter;stroke:rgb(0%,0%,0%);stroke-opacity:1;stroke-miterlimit:10;" d="M 148.082031 124.601562 L 130.671875 145.1875 "/>
<path style="fill:none;stroke-width:1.2;stroke-linecap:butt;stroke-linejoin:miter;stroke:rgb(0%,0%,0%);stroke-opacity:1;stroke-miterlimit:10;" d="M 130.671875 145.1875 L 139.792969 170.554688 "/>
<path style="fill:none;stroke-width:1.2;stroke-linecap:butt;stroke-linejoin:miter;stroke:rgb(0%,0%,0%);stroke-opacity:1;stroke-miterlimit:10;" d="M 104.144531 140.402344 L 130.671875 145.1875 "/>
<path style="fill:none;stroke-width:1.2;stroke-linecap:butt;stroke-linejoin:miter;stroke:rgb(0%,0%,0%);stroke-opacity:1;stroke-miterlimit:10;" d="M 139.792969 170.554688 L 166.324219 175.335938 "/>
<path style="fill:none;stroke-width:1.2;stroke-linecap:butt;stroke-linejoin:miter;stroke:rgb(0%,0%,0%);stroke-opacity:1;stroke-miterlimit:10;" d="M 139.792969 170.554688 L 122.386719 191.136719 "/>
<path style=" stroke:none;fill-rule:nonzero;fill:rgb(0%,0%,0%);fill-opacity:1;" d="M 139.792969 170.554688 L 136.503906 185.285156 L 145.96875 184.328125 Z M 139.792969 170.554688 "/>
<path style="fill:none;stroke-width:1.2;stroke-linecap:butt;stroke-linejoin:miter;stroke:rgb(0%,0%,0%);stroke-opacity:1;stroke-miterlimit:10;" d="M 166.324219 175.335938 L 175.445312 200.707031 "/>
<path style="fill:none;stroke-width:1;stroke-linecap:butt;stroke-linejoin:miter;stroke:rgb(0%,0%,0%);stroke-opacity:1;stroke-miterlimit:10;" d="M 166.324219 175.335938 L 166.324219 175.335938 M 164.019531 177.257812 L 164.8125 177.929688 M 161.710938 179.175781 L 163.304688 180.523438 M 159.40625 181.09375 L 161.792969 183.113281 M 157.101562 183.015625 L 160.285156 185.707031 M 154.792969 184.933594 L 158.773438 188.300781 M 152.488281 186.851562 L 157.265625 190.890625 M 150.183594 188.769531 L 155.753906 193.484375 M 147.875 190.691406 L 154.246094 196.078125 M 145.570312 192.609375 L 152.738281 198.667969 M 145.285156 192.847656 L 152.546875 198.992188 "/>
<path style="fill:none;stroke-width:1.2;stroke-linecap:butt;stroke-linejoin:miter;stroke:rgb(0%,0%,0%);stroke-opacity:1;stroke-miterlimit:10;" d="M 175.445312 200.707031 L 162.179688 198.3125 "/>
<path style="fill:none;stroke-width:1.2;stroke-linecap:butt;stroke-linejoin:miter;stroke:rgb(100%,0%,0%);stroke-opacity:1;stroke-miterlimit:10;" d="M 162.179688 198.3125 L 148.914062 195.921875 "/>
<path style="fill:none;stroke-width:1.2;stroke-linecap:butt;stroke-linejoin:miter;stroke:rgb(0%,0%,0%);stroke-opacity:1;stroke-miterlimit:10;" d="M 175.445312 200.707031 L 201.976562 205.488281 "/>
<path style=" stroke:none;fill-rule:nonzero;fill:rgb(100%,100%,100%);fill-opacity:1;" d="M 144.914062 189.421875 L 153.914062 189.421875 L 153.914062 202.421875 L 144.914062 202.421875 Z M 144.914062 189.421875 "/>
<g style="fill:rgb(100%,0%,0%);fill-opacity:1;">
  <use xlink:href="#glyph0-1" x="144.914062" y="199.323242"/>
</g>
<path style="fill:none;stroke-width:1.2;stroke-linecap:butt;stroke-linejoin:miter;stroke:rgb(0%,0%,0%);stroke-opacity:1;stroke-miterlimit:10;" d="M 198.992188 206.5625 L 203.550781 219.246094 "/>
<path style="fill:none;stroke-width:1.2;stroke-linecap:butt;stroke-linejoin:miter;stroke:rgb(100%,0%,0%);stroke-opacity:1;stroke-miterlimit:10;" d="M 203.550781 219.246094 L 208.113281 231.929688 "/>
<path style="fill:none;stroke-width:1.2;stroke-linecap:butt;stroke-linejoin:miter;stroke:rgb(0%,0%,0%);stroke-opacity:1;stroke-miterlimit:10;" d="M 204.960938 204.417969 L 209.519531 217.101562 "/>
<path style="fill:none;stroke-width:1.2;stroke-linecap:butt;stroke-linejoin:miter;stroke:rgb(100%,0%,0%);stroke-opacity:1;stroke-miterlimit:10;" d="M 209.519531 217.101562 L 214.082031 229.785156 "/>
<path style="fill:none;stroke-width:1.2;stroke-linecap:butt;stroke-linejoin:miter;stroke:rgb(0%,0%,0%);stroke-opacity:1;stroke-miterlimit:10;" d="M 201.976562 205.488281 L 210.679688 195.199219 "/>
<path style="fill:none;stroke-width:1.2;stroke-linecap:butt;stroke-linejoin:miter;stroke:rgb(100%,0%,0%);stroke-opacity:1;stroke-miterlimit:10;" d="M 210.679688 195.199219 L 219.382812 184.90625 "/>
<path style=" stroke:none;fill-rule:nonzero;fill:rgb(100%,100%,100%);fill-opacity:1;" d="M 207.097656 224.355469 L 216.097656 224.355469 L 216.097656 237.355469 L 207.097656 237.355469 Z M 207.097656 224.355469 "/>
<g style="fill:rgb(100%,0%,0%);fill-opacity:1;">
  <use xlink:href="#glyph0-1" x="207.097656" y="234.256836"/>
</g>
<path style="fill:none;stroke-width:1.2;stroke-linecap:butt;stroke-linejoin:miter;stroke:rgb(100%,0%,0%);stroke-opacity:1;stroke-miterlimit:10;" d="M 219.382812 184.90625 L 214.824219 172.222656 "/>
<path style="fill:none;stroke-width:1.2;stroke-linecap:butt;stroke-linejoin:miter;stroke:rgb(0%,0%,0%);stroke-opacity:1;stroke-miterlimit:10;" d="M 214.824219 172.222656 L 210.261719 159.539062 "/>
<path style=" stroke:none;fill-rule:nonzero;fill:rgb(100%,100%,100%);fill-opacity:1;" d="M 215.382812 178.40625 L 224.382812 178.40625 L 224.382812 191.40625 L 215.382812 191.40625 Z M 215.382812 178.40625 "/>
<g style="fill:rgb(100%,0%,0%);fill-opacity:1;">
  <use xlink:href="#glyph0-1" x="215.382812" y="188.307617"/>
</g>
<path style="fill:none;stroke-width:1.2;stroke-linecap:butt;stroke-linejoin:miter;stroke:rgb(0%,0%,0%);stroke-opacity:1;stroke-miterlimit:10;" d="M 210.261719 159.539062 L 227.671875 138.957031 "/>
<path style="fill:none;stroke-width:1.2;stroke-linecap:butt;stroke-linejoin:miter;stroke:rgb(0%,0%,0%);stroke-opacity:1;stroke-miterlimit:10;" d="M 227.671875 138.957031 L 221.25 112.773438 "/>
<path style="fill:none;stroke-width:1.2;stroke-linecap:butt;stroke-linejoin:miter;stroke:rgb(0%,0%,0%);stroke-opacity:1;stroke-miterlimit:10;" d="M 233.1875 134.828125 L 228.050781 113.882812 "/>
<path style="fill:none;stroke-width:1.2;stroke-linecap:butt;stroke-linejoin:miter;stroke:rgb(0%,0%,0%);stroke-opacity:1;stroke-miterlimit:10;" d="M 254.554688 140.941406 L 227.671875 138.957031 "/>
<path style="fill:none;stroke-width:1.2;stroke-linecap:butt;stroke-linejoin:miter;stroke:rgb(0%,0%,0%);stroke-opacity:1;stroke-miterlimit:10;" d="M 221.25 112.773438 L 232.707031 105.675781 "/>
<path style="fill:none;stroke-width:1.2;stroke-linecap:butt;stroke-linejoin:miter;stroke:rgb(100%,0%,0%);stroke-opacity:1;stroke-miterlimit:10;" d="M 232.707031 105.675781 L 244.167969 98.578125 "/>
<path style="fill:none;stroke-width:1.2;stroke-linecap:butt;stroke-linejoin:miter;stroke:rgb(100%,0%,0%);stroke-opacity:1;stroke-miterlimit:10;" d="M 244.167969 98.578125 L 254.457031 107.28125 "/>
<path style="fill:none;stroke-width:1.2;stroke-linecap:butt;stroke-linejoin:miter;stroke:rgb(0%,0%,0%);stroke-opacity:1;stroke-miterlimit:10;" d="M 254.457031 107.28125 L 264.75 115.984375 "/>
<path style=" stroke:none;fill-rule:nonzero;fill:rgb(100%,100%,100%);fill-opacity:1;" d="M 240.167969 92.078125 L 249.167969 92.078125 L 249.167969 105.078125 L 240.167969 105.078125 Z M 240.167969 92.078125 "/>
<g style="fill:rgb(100%,0%,0%);fill-opacity:1;">
  <use xlink:href="#glyph0-1" x="240.167969" y="101.979492"/>
</g>
<path style="fill:none;stroke-width:1.2;stroke-linecap:butt;stroke-linejoin:miter;stroke:rgb(0%,0%,0%);stroke-opacity:1;stroke-miterlimit:10;" d="M 264.75 115.984375 L 254.554688 140.941406 "/>
<path style="fill:none;stroke-width:1.2;stroke-linecap:butt;stroke-linejoin:miter;stroke:rgb(0%,0%,0%);stroke-opacity:1;stroke-miterlimit:10;" d="M 257.859375 116.082031 L 249.703125 136.046875 "/>
<path style="fill:none;stroke-width:1.2;stroke-linecap:butt;stroke-linejoin:miter;stroke:rgb(0%,0%,0%);stroke-opacity:1;stroke-miterlimit:10;" d="M 119.402344 192.210938 L 123.960938 204.894531 "/>
<path style="fill:none;stroke-width:1.2;stroke-linecap:butt;stroke-linejoin:miter;stroke:rgb(100%,0%,0%);stroke-opacity:1;stroke-miterlimit:10;" d="M 123.960938 204.894531 L 128.523438 217.578125 "/>
<path style="fill:none;stroke-width:1.2;stroke-linecap:butt;stroke-linejoin:miter;stroke:rgb(0%,0%,0%);stroke-opacity:1;stroke-miterlimit:10;" d="M 125.371094 190.0625 L 129.929688 202.746094 "/>
<path style="fill:none;stroke-width:1.2;stroke-linecap:butt;stroke-linejoin:miter;stroke:rgb(100%,0%,0%);stroke-opacity:1;stroke-miterlimit:10;" d="M 129.929688 202.746094 L 134.492188 215.429688 "/>
<path style="fill:none;stroke-width:1.2;stroke-linecap:butt;stroke-linejoin:miter;stroke:rgb(0%,0%,0%);stroke-opacity:1;stroke-miterlimit:10;" d="M 122.386719 191.136719 L 95.855469 186.351562 "/>
<path style=" stroke:none;fill-rule:nonzero;fill:rgb(100%,100%,100%);fill-opacity:1;" d="M 127.507812 210.003906 L 136.507812 210.003906 L 136.507812 223.003906 L 127.507812 223.003906 Z M 127.507812 210.003906 "/>
<g style="fill:rgb(100%,0%,0%);fill-opacity:1;">
  <use xlink:href="#glyph0-1" x="127.507812" y="219.905273"/>
</g>
<path style="fill:none;stroke-width:1.2;stroke-linecap:butt;stroke-linejoin:miter;stroke:rgb(0%,0%,0%);stroke-opacity:1;stroke-miterlimit:10;" d="M 95.855469 186.351562 L 86.734375 160.984375 "/>
<path style="fill:none;stroke-width:1.2;stroke-linecap:butt;stroke-linejoin:miter;stroke:rgb(0%,0%,0%);stroke-opacity:1;stroke-miterlimit:10;" d="M 86.734375 160.984375 L 104.144531 140.402344 "/>
<path style="fill:none;stroke-width:1.2;stroke-linecap:butt;stroke-linejoin:miter;stroke:rgb(0%,0%,0%);stroke-opacity:1;stroke-miterlimit:10;" d="M 61.78125 150.789062 L 86.734375 160.984375 "/>
<path style=" stroke:none;fill-rule:nonzero;fill:rgb(0%,0%,0%);fill-opacity:1;" d="M 104.144531 140.402344 L 126.8125 133.007812 L 122.113281 124.734375 Z M 104.144531 140.402344 "/>
<path style="fill:none;stroke-width:1.2;stroke-linecap:butt;stroke-linejoin:miter;stroke:rgb(0%,0%,0%);stroke-opacity:1;stroke-miterlimit:10;" d="M 89.945312 117.484375 L 104.144531 140.402344 "/>
<path style="fill:none;stroke-width:1.2;stroke-linecap:butt;stroke-linejoin:miter;stroke:rgb(0%,0%,0%);stroke-opacity:1;stroke-miterlimit:10;" d="M 124.460938 128.871094 L 127.863281 122.535156 "/>
<path style="fill:none;stroke-width:1.2;stroke-linecap:butt;stroke-linejoin:miter;stroke:rgb(100%,0%,0%);stroke-opacity:1;stroke-miterlimit:10;" d="M 127.863281 122.535156 L 131.261719 116.203125 "/>
<path style="fill:none;stroke-width:1.2;stroke-linecap:butt;stroke-linejoin:miter;stroke:rgb(100%,0%,0%);stroke-opacity:1;stroke-miterlimit:10;" d="M 131.261719 116.203125 L 127.476562 110.089844 "/>
<path style="fill:none;stroke-width:1.2;stroke-linecap:butt;stroke-linejoin:miter;stroke:rgb(0%,0%,0%);stroke-opacity:1;stroke-miterlimit:10;" d="M 127.476562 110.089844 L 123.691406 103.980469 "/>
<path style=" stroke:none;fill-rule:nonzero;fill:rgb(100%,100%,100%);fill-opacity:1;" d="M 127.261719 109.703125 L 136.261719 109.703125 L 136.261719 122.703125 L 127.261719 122.703125 Z M 127.261719 109.703125 "/>
<g style="fill:rgb(100%,0%,0%);fill-opacity:1;">
  <use xlink:href="#glyph0-1" x="127.261719" y="119.604492"/>
</g>
<path style="fill:none;stroke-width:1.2;stroke-linecap:butt;stroke-linejoin:miter;stroke:rgb(0%,0%,0%);stroke-opacity:1;stroke-miterlimit:10;" d="M 126.484375 105.480469 L 135.832031 88.0625 "/>
<path style="fill:none;stroke-width:1.2;stroke-linecap:butt;stroke-linejoin:miter;stroke:rgb(100%,0%,0%);stroke-opacity:1;stroke-miterlimit:10;" d="M 135.832031 88.0625 L 145.183594 70.644531 "/>
<path style="fill:none;stroke-width:1.2;stroke-linecap:butt;stroke-linejoin:miter;stroke:rgb(0%,0%,0%);stroke-opacity:1;stroke-miterlimit:10;" d="M 120.894531 102.480469 L 130.246094 85.0625 "/>
<path style="fill:none;stroke-width:1.2;stroke-linecap:butt;stroke-linejoin:miter;stroke:rgb(100%,0%,0%);stroke-opacity:1;stroke-miterlimit:10;" d="M 130.246094 85.0625 L 139.59375 67.644531 "/>
<path style="fill:none;stroke-width:1.2;stroke-linecap:butt;stroke-linejoin:miter;stroke:rgb(0%,0%,0%);stroke-opacity:1;stroke-miterlimit:10;" d="M 123.691406 103.980469 L 109.320312 104.425781 "/>
<path style=" stroke:none;fill-rule:nonzero;fill:rgb(100%,100%,100%);fill-opacity:1;" d="M 138.386719 62.644531 L 147.386719 62.644531 L 147.386719 75.644531 L 138.386719 75.644531 Z M 138.386719 62.644531 "/>
<g style="fill:rgb(100%,0%,0%);fill-opacity:1;">
  <use xlink:href="#glyph0-1" x="138.386719" y="72.545898"/>
</g>
<path style="fill:none;stroke-width:1.2;stroke-linecap:butt;stroke-linejoin:miter;stroke:rgb(0%,0%,0%);stroke-opacity:1;stroke-miterlimit:10;" d="M 109.320312 104.425781 L 89.945312 117.484375 "/>
<path style="fill:none;stroke-width:1.2;stroke-linecap:butt;stroke-linejoin:miter;stroke:rgb(0%,0%,0%);stroke-opacity:1;stroke-miterlimit:10;" d="M 89.945312 117.484375 L 76.855469 120.695312 "/>
<path style="fill:none;stroke-width:1.2;stroke-linecap:butt;stroke-linejoin:miter;stroke:rgb(100%,0%,0%);stroke-opacity:1;stroke-miterlimit:10;" d="M 76.855469 120.695312 L 63.765625 123.90625 "/>
<path style="fill:none;stroke-width:1.2;stroke-linecap:butt;stroke-linejoin:miter;stroke:rgb(100%,0%,0%);stroke-opacity:1;stroke-miterlimit:10;" d="M 63.765625 123.90625 L 62.773438 137.347656 "/>
<path style="fill:none;stroke-width:1.2;stroke-linecap:butt;stroke-linejoin:miter;stroke:rgb(0%,0%,0%);stroke-opacity:1;stroke-miterlimit:10;" d="M 62.773438 137.347656 L 61.78125 150.789062 "/>
<path style=" stroke:none;fill-rule:nonzero;fill:rgb(100%,100%,100%);fill-opacity:1;" d="M 59.765625 117.40625 L 68.765625 117.40625 L 68.765625 130.40625 L 59.765625 130.40625 Z M 59.765625 117.40625 "/>
<g style="fill:rgb(100%,0%,0%);fill-opacity:1;">
  <use xlink:href="#glyph0-1" x="59.765625" y="127.307617"/>
</g>
<path style="fill:none;stroke-width:1.2;stroke-linecap:butt;stroke-linejoin:miter;stroke:rgb(0%,0%,0%);stroke-opacity:1;stroke-miterlimit:10;" d="M 61.78125 150.789062 L 35.25 146.003906 "/>
<path style="fill:none;stroke-width:1.2;stroke-linecap:butt;stroke-linejoin:miter;stroke:rgb(0%,0%,0%);stroke-opacity:1;stroke-miterlimit:10;" d="M 61.78125 150.789062 L 54.25 176.671875 "/>
</g>
</svg>

<svg xmlns="http://www.w3.org/2000/svg" xmlns:xlink="http://www.w3.org/1999/xlink" width="300pt" height="300pt" viewBox="0 0 300 300"><defs><symbol overflow="visible"><path d="M.547 1.938V-7.75h5.5v9.688zm.625-.61h4.266v-8.47H1.171zm0 0"/></symbol><symbol overflow="visible" id="a"><path d="M4.328-7.28c-.78 0-1.406.296-1.875.89-.46.585-.687 1.382-.687 2.39 0 1.012.226 1.813.687 2.406.47.586 1.094.875 1.875.875.79 0 1.414-.288 1.875-.874.457-.593.688-1.394.688-2.406 0-1.008-.23-1.805-.687-2.39-.46-.594-1.086-.89-1.875-.89zm0-.892c1.125 0 2.024.383 2.703 1.14C7.708-6.28 8.048-5.27 8.048-4c0 1.262-.34 2.273-1.016 3.03C6.353-.22 5.454.157 4.33.157S2.3-.22 1.625-.97c-.668-.75-1-1.757-1-3.03 0-1.27.332-2.28 1-3.03.676-.76 1.578-1.142 2.703-1.142zm0 0"/></symbol></defs><g><path fill="#fff" d="M0 0h300v300H0z"/><path d="M183.73 154.754m2.31-1.918l-.798-.676m3.102-1.242l-1.594-1.348m3.898-.574l-2.386-2.02m4.695.102l-3.187-2.695m5.492.777l-3.98-3.367m6.284 1.445l-4.777-4.04m7.085 2.122l-5.574-4.715m7.88 2.797l-6.37-5.386m8.674 3.468l-7.164-6.062m7.453 5.82l-7.265-6.144" stroke="#000" stroke-miterlimit="10" fill="none"/><path d="M183.73 154.754l-9.12-25.367M166.324 175.336l17.406-20.582M210.262 159.54l-26.532-4.786M174.61 129.387l-26.528-4.785M148.082 124.602l-17.41 20.585M130.672 145.188l9.12 25.367M104.145 140.402l26.527 4.786M139.793 170.555l26.53 4.78M139.793 170.555l-17.406 20.582" stroke-width="1.2" stroke="#000" stroke-miterlimit="10" fill="none"/><path d="M139.793 170.555l-3.29 14.73 9.466-.957zm0 0"/><path d="M166.324 175.336l9.12 25.37" stroke-width="1.2" stroke="#000" stroke-miterlimit="10" fill="none"/><path d="M166.324 175.336m-2.304 1.922l.792.672m-3.1 1.246l1.593 1.347m-3.9.57l2.388 2.02m-4.69-.097l3.182 2.69m-5.492-.772l3.98 3.367m-6.285-1.448l4.778 4.04m-7.082-2.122l5.57 4.714m-7.88-2.793l6.372 5.388m-8.676-3.47l7.168 6.06m-7.453-5.82l7.262 6.144" stroke="#000" stroke-miterlimit="10" fill="none"/><path d="M175.445 200.707l-13.265-2.394" stroke-width="1.2" stroke="#000" stroke-miterlimit="10" fill="none"/><path d="M162.18 198.313l-13.266-2.39" stroke-width="1.2" stroke="#f00" stroke-miterlimit="10" fill="none"/><path d="M175.445 200.707l26.532 4.78" stroke-width="1.2" stroke="#000" stroke-miterlimit="10" fill="none"/><path d="M144.914 189.422h9v13h-9zm0 0" fill="#fff"/><use xlink:href="#a" x="144.914" y="199.323" fill="#f00"/><path d="M198.992 206.563l4.56 12.683" stroke-width="1.2" stroke="#000" stroke-miterlimit="10" fill="none"/><path d="M203.55 219.246l4.563 12.684" stroke-width="1.2" stroke="#f00" stroke-miterlimit="10" fill="none"/><path d="M204.96 204.418l4.56 12.684" stroke-width="1.2" stroke="#000" stroke-miterlimit="10" fill="none"/><path d="M209.52 217.102l4.562 12.683" stroke-width="1.2" stroke="#f00" stroke-miterlimit="10" fill="none"/><path d="M201.977 205.488l8.703-10.29" stroke-width="1.2" stroke="#000" stroke-miterlimit="10" fill="none"/><path d="M210.68 195.2l8.703-10.294" stroke-width="1.2" stroke="#f00" stroke-miterlimit="10" fill="none"/><path d="M207.098 224.355h9v13h-9zm0 0" fill="#fff"/><use xlink:href="#a" x="207.098" y="234.257" fill="#f00"/><path d="M219.383 184.906l-4.56-12.683" stroke-width="1.2" stroke="#f00" stroke-miterlimit="10" fill="none"/><path d="M214.824 172.223l-4.562-12.684" stroke-width="1.2" stroke="#000" stroke-miterlimit="10" fill="none"/><path d="M215.383 178.406h9v13h-9zm0 0" fill="#fff"/><use xlink:href="#a" x="215.383" y="188.308" fill="#f00"/><path d="M210.262 159.54l17.41-20.583M227.672 138.957l-6.422-26.184M233.188 134.828l-5.137-20.945M254.555 140.94l-26.883-1.983M221.25 112.773l11.457-7.097" stroke-width="1.2" stroke="#000" stroke-miterlimit="10" fill="none"/><path d="M232.707 105.676l11.46-7.098M244.168 98.578l10.29 8.703" stroke-width="1.2" stroke="#f00" stroke-miterlimit="10" fill="none"/><path d="M254.457 107.28l10.293 8.704" stroke-width="1.2" stroke="#000" stroke-miterlimit="10" fill="none"/><path d="M240.168 92.078h9v13h-9zm0 0" fill="#fff"/><use xlink:href="#a" x="240.168" y="101.979" fill="#f00"/><path d="M264.75 115.984l-10.195 24.957M257.86 116.082l-8.157 19.965M119.402 192.21l4.56 12.685" stroke-width="1.2" stroke="#000" stroke-miterlimit="10" fill="none"/><path d="M123.96 204.895l4.563 12.683" stroke-width="1.2" stroke="#f00" stroke-miterlimit="10" fill="none"/><path d="M125.37 190.063l4.56 12.683" stroke-width="1.2" stroke="#000" stroke-miterlimit="10" fill="none"/><path d="M129.93 202.746l4.562 12.684" stroke-width="1.2" stroke="#f00" stroke-miterlimit="10" fill="none"/><path d="M122.387 191.137l-26.532-4.785" stroke-width="1.2" stroke="#000" stroke-miterlimit="10" fill="none"/><path d="M127.508 210.004h9v13h-9zm0 0" fill="#fff"/><use xlink:href="#a" x="127.508" y="219.905" fill="#f00"/><path d="M95.855 186.352l-9.12-25.368M86.734 160.984l17.41-20.582M61.78 150.79l24.954 10.194" stroke-width="1.2" stroke="#000" stroke-miterlimit="10" fill="none"/><path d="M104.145 140.402l22.668-7.394-4.7-8.274zm0 0"/><path d="M89.945 117.484l14.2 22.918M124.46 128.87l3.403-6.335" stroke-width="1.2" stroke="#000" stroke-miterlimit="10" fill="none"/><path d="M127.863 122.535l3.4-6.332M131.262 116.203l-3.785-6.113" stroke-width="1.2" stroke="#f00" stroke-miterlimit="10" fill="none"/><path d="M127.477 110.09l-3.786-6.11" stroke-width="1.2" stroke="#000" stroke-miterlimit="10" fill="none"/><path d="M127.262 109.703h9v13h-9zm0 0" fill="#fff"/><use xlink:href="#a" x="127.262" y="119.604" fill="#f00"/><path d="M126.484 105.48l9.348-17.418" stroke-width="1.2" stroke="#000" stroke-miterlimit="10" fill="none"/><path d="M135.832 88.063l9.352-17.418" stroke-width="1.2" stroke="#f00" stroke-miterlimit="10" fill="none"/><path d="M120.895 102.48l9.35-17.418" stroke-width="1.2" stroke="#000" stroke-miterlimit="10" fill="none"/><path d="M130.246 85.063l9.348-17.418" stroke-width="1.2" stroke="#f00" stroke-miterlimit="10" fill="none"/><path d="M123.69 103.98l-14.37.446" stroke-width="1.2" stroke="#000" stroke-miterlimit="10" fill="none"/><path d="M138.387 62.645h9v13h-9zm0 0" fill="#fff"/><use xlink:href="#a" x="138.387" y="72.546" fill="#f00"/><path d="M109.32 104.426l-19.375 13.058M89.945 117.484l-13.09 3.21" stroke-width="1.2" stroke="#000" stroke-miterlimit="10" fill="none"/><path d="M76.855 120.695l-13.09 3.21M63.766 123.906l-.993 13.442" stroke-width="1.2" stroke="#f00" stroke-miterlimit="10" fill="none"/><path d="M62.773 137.348l-.992 13.44" stroke-width="1.2" stroke="#000" stroke-miterlimit="10" fill="none"/><path d="M59.766 117.406h9v13h-9zm0 0" fill="#fff"/><use xlink:href="#a" x="59.766" y="127.308" fill="#f00"/><path d="M61.78 150.79l-26.53-4.786M61.78 150.79l-7.53 25.882" stroke-width="1.2" stroke="#000" stroke-miterlimit="10" fill="none"/></g></svg>
